static/img/icons-concept-dup.svg

<svg width="240" height="240" viewBox="0 0 240 240" fill="none" xmlns="http://www.w3.org/2000/svg"><path fill="#fff" d="M0 0h240v240H0z"/><path stroke="#DFDFDF" d="M39.5 39.5h160v160h-160z"/><path d="M49.5 39.5v160m10-160v160m10-160v160m10-160v160m10-160v160m10-160v160m10-160v160m10-160v160m10-160v160m10-160v160m10-160v160m10-160v160m10-160v160m10-160v160m10-160v160m10-150h-160m160 10h-160m160 10h-160m160 10h-160m160 10h-160m160 10h-160m160 10h-160m160 10h-160m160 10h-160m160 10h-160m160 10h-160m160 10h-160m160 10h-160m160 10h-160m160 10h-160" stroke="#DFDFDF" stroke-linecap="square"/><path fill-rule="evenodd" clip-rule="evenodd" d="M211 39c5.523 0 10-4.477 10-10s-4.477-10-10-10-10 4.477-10 10 4.477 10 10 10Z" fill="#17AA55"/><path d="m207 29.069 2.981 2.98 6.05-6.049" stroke="#fff" stroke-width="2" stroke-linecap="round"/><path d="M39.5 76.575c0-3.94 2.977-7.075 6.578-7.075h146.844c3.601 0 6.578 3.135 6.578 7.075 0 3.94-2.977 7.075-6.578 7.075H46.078c-3.602 0-6.578-3.135-6.578-7.075Zm0 42.925c0-3.94 2.977-7.075 6.578-7.075h146.844c3.601 0 6.578 3.135 6.578 7.075 0 3.94-2.977 7.075-6.578 7.075H46.078c-3.602 0-6.578-3.135-6.578-7.075Zm0 42.925c0-3.94 2.977-7.075 6.578-7.075h146.844c3.601 0 6.578 3.135 6.578 7.075 0 3.94-2.977 7.075-6.578 7.075H46.078c-3.602 0-6.578-3.135-6.578-7.075Z" fill="#6E49CB" fill-opacity=".3" stroke="#6E49CB"/></svg>

<svg width="240" height="240" xmlns="http://www.w3.org/2000/svg"><g fill="none" fill-rule="evenodd"><path fill="#FFF" d="M0 0h240v240H0z"/><g stroke="#DFDFDF"><path d="M39.5 39.5h160v160h-160z"/><g stroke-linecap="square"><path d="M49.5 39.5v160M59.5 39.5v160M69.5 39.5v160M79.5 39.5v160M89.5 39.5v160M99.5 39.5v160M109.5 39.5v160M119.5 39.5v160M129.5 39.5v160M139.5 39.5v160M149.5 39.5v160M159.5 39.5v160M169.5 39.5v160M179.5 39.5v160M189.5 39.5v160M199.5 49.5h-160M199.5 59.5h-160M199.5 69.5h-160M199.5 79.5h-160M199.5 89.5h-160M199.5 99.5h-160M199.5 109.5h-160M199.5 119.5h-160M199.5 129.5h-160M199.5 139.5h-160M199.5 149.5h-160M199.5 159.5h-160M199.5 169.5h-160M199.5 179.5h-160M199.5 189.5h-160"/></g></g><path d="M119.5 139.5c11.046 0 20-8.954 20-20s-8.954-20-20-20-20 8.954-20 20 8.954 20 20 20zm21.213-41.213c11.716 11.716 11.716 30.71 0 42.426-3.905 3.905-3.905 10.237 0 14.142 3.905 3.906 10.237 3.906 14.142 0 19.527-19.526 19.527-51.184 0-70.71-3.905-3.906-10.237-3.906-14.142 0-3.905 3.905-3.905 10.237 0 14.142zm-42.426 42.426c-11.716-11.716-11.716-30.71 0-42.426 3.905-3.905 3.905-10.237 0-14.142-3.905-3.906-10.237-3.906-14.142 0-19.527 19.526-19.527 51.184 0 70.71 3.905 3.906 10.237 3.906 14.142 0 3.905-3.905 3.905-10.237 0-14.142zm63.64-63.64c23.43 23.432 23.43 61.422 0 84.853-3.906 3.906-3.906 10.237 0 14.143 3.905 3.905 10.236 3.905 14.142 0 31.241-31.242 31.241-81.896 0-113.138-3.906-3.905-10.237-3.905-14.143 0-3.905 3.906-3.905 10.237 0 14.143zm-84.853 84.853c-23.432-23.431-23.432-61.42 0-84.852 3.905-3.906 3.905-10.237 0-14.143-3.906-3.905-10.237-3.905-14.143 0-31.241 31.242-31.241 81.896 0 113.138 3.906 3.905 10.237 3.905 14.143 0 3.905-3.906 3.905-10.237 0-14.143z" stroke="#6E49CB" fill-opacity=".3" fill="#6E49CB"/><g transform="translate(201 19)"><circle fill="#17AA55" cx="10" cy="10" r="10"/><path stroke="#FFF" stroke-width="2" stroke-linecap="round" d="M6 10.069l2.98 2.98L15.03 7"/></g></g></svg>
